img/Next.svg

<?xml version="1.0" encoding="UTF-8"?>
<svg width="10px" height="16px" viewBox="0 0 10 16" version="1.1" xmlns="http://www.w3.org/2000/svg" xmlns:xlink="http://www.w3.org/1999/xlink">
    <!-- Generator: Sketch 51.2 (57519) - http://www.bohemiancoding.com/sketch -->
    <title>next</title>
    <desc>Created with Sketch.</desc>
    <defs></defs>
    <g id="Events" stroke="none" stroke-width="1" fill="none" fill-rule="evenodd">
        <g id="Assets" transform="translate(-84.000000, -401.000000)" fill="#666666" fill-rule="nonzero" stroke="#666666">
            <g id="32213" transform="translate(84.566372, 401.992248)">
                <path d="M7.69930233,7.6989845 L1.67489922,13.7232016 C1.29167442,14.1066124 0.670341085,14.1066124 0.287302326,13.7232016 C-0.0957674419,13.3401318 -0.0957674419,12.7188295 0.287302326,12.3357907 L5.61796899,7.00527907 L0.287457364,1.67495349 C-0.0956124031,1.29172868 -0.0956124031,0.670488372 0.287457364,0.287418605 C0.670527132,-0.0958062016 1.29182946,-0.0958062016 1.67505426,0.287418605 L7.69945736,6.31172868 C7.89099225,6.50335659 7.98665116,6.75424031 7.98665116,7.00524806 C7.98665116,7.25637984 7.8908062,7.50744961 7.69930233,7.6989845 Z" id="Shape"></path>
            </g>
        </g>
    </g>
</svg>

<svg height="16" viewBox="0 0 10 16" width="10" xmlns="http://www.w3.org/2000/svg"><path d="m7.69930233 7.6989845-6.02440311 6.0242171c-.3832248.3834108-1.00455813.3834108-1.38759689 0-.38306977-.3830698-.38306977-1.0043721 0-1.3874109l5.33066666-5.33051163-5.33051163-5.33032558c-.38306976-.38322481-.38306976-1.00446512 0-1.38753488.38306977-.38322481 1.0043721-.38322481 1.3875969 0l6.0244031 6.02431007c.19153489.19162791.2871938.44251163.2871938.69351938 0 .25113178-.09584496.50220155-.28734883.69373644z" fill="#666" stroke="#666" transform="translate(.566372 .992248)"/></svg>
